!!!OTL: Did You Ever See a Lassie?
!!!COM: unknown
!!!ODT: unknown
!!!YOR: Fake Book of the World's Favorite Songs
!!!YOY: 1990
!!!AST: Children's song
!!!YEC: Brian Luke, 2001
**kern	**harm
*k[b-]	*k[b-]
*M3/4	*M3/4
*F:	*F:
*>A	*>A
8f	.
8a	.
=1	=1
4.cc	I
8dd	.
8cc	.
8b-	.
=2	=2
4a	.
4f	.
4f	.
=3	=3
4g	V7
4c	.
4c	.
=4	=4
4a	I
4f	.
*>A'	*>A'
8f	.
8a	.
=5	=5
4.cc	I
8dd	.
8cc	.
8b-	.
=6	=6
4a	.
4f	.
4f	.
=7	=7
4g	V7
4c	.
4c	.
=8	=8
4f	I;
4r	.
*>B	*>B
4f	.
=9	=9
4g	V7
4c	.
4c	.
=10	=10
4a	I
4f	.
4f	.
=11	=11
4g	V7
4c	.
4c	.
=12	=12
4a	I
4f	.
*>A'	*>A'
8f	.
8a	.
=13	=13
4.cc	I
8dd	.
8cc	.
8b-	.
=14	=14
4a	.
4f	.
4f	.
=15	=15
4g	V7
4c	.
4c	.
=16	=16
4f	I;
4r	.
*-	*-
